assets/img/braze_icons/menu-05.svg

<svg fill="none" height="24" viewBox="0 0 24 24" width="24" xmlns="http://www.w3.org/2000/svg"><g clip-rule="evenodd" fill="#801ed7" fill-rule="evenodd"><path d="m2 8.5c0-.55228.44772-1 1-1h18c.5523 0 1 .44772 1 1s-.4477 1-1 1h-18c-.55228 0-1-.44772-1-1z"/><path d="m2 15.5c0-.5523.44772-1 1-1h18c.5523 0 1 .4477 1 1s-.4477 1-1 1h-18c-.55228 0-1-.4477-1-1z"/></g></svg>

<svg width="24" height="24" viewBox="0 0 24 24" fill="none" xmlns="http://www.w3.org/2000/svg">
<path fill-rule="evenodd" clip-rule="evenodd" d="M2 8.5C2 7.94772 2.44772 7.5 3 7.5H21C21.5523 7.5 22 7.94772 22 8.5C22 9.05228 21.5523 9.5 21 9.5H3C2.44772 9.5 2 9.05228 2 8.5Z" fill="#801ED7"/>
<path fill-rule="evenodd" clip-rule="evenodd" d="M2 15.5C2 14.9477 2.44772 14.5 3 14.5H21C21.5523 14.5 22 14.9477 22 15.5C22 16.0523 21.5523 16.5 21 16.5H3C2.44772 16.5 2 16.0523 2 15.5Z" fill="#801ED7"/>
</svg>
